packages/elvis-assets-icons/icons/svg/src/business-color.svg

<svg width="24" height="24" viewBox="0 0 24 24" fill="none" xmlns="http://www.w3.org/2000/svg">
<path fill-rule="evenodd" clip-rule="evenodd" d="M2.7463 9.48458C2.7776 9.11944 3.08312 8.83899 3.4496 8.83899H5.80661C6.16925 8.83899 6.4729 9.11378 6.50898 9.47463L7.82034 22.5882H20.6177V13.6779L8.94189 15.054C8.55472 15.0997 8.20387 14.8228 8.15824 14.4356C8.11261 14.0485 8.38948 13.6976 8.77664 13.652L21.241 12.1829C21.4412 12.1593 21.6419 12.2225 21.7926 12.3564C21.9433 12.4904 22.0295 12.6824 22.0295 12.884V23.2941C22.0295 23.6839 21.7134 24 21.3236 24H7.18933C7.18355 24 7.17779 24 7.17204 24H2.27109C2.0734 24 1.88477 23.9171 1.75109 23.7714C1.6174 23.6258 1.55091 23.4308 1.5678 23.2338L2.7463 9.48458ZM6.40155 22.5882L5.1678 10.2507H4.09756L3.04006 22.5882H6.40155Z" fill="black"/>
<path fill-rule="evenodd" clip-rule="evenodd" d="M15.6935 0.0506743C16.0555 0.195459 16.2315 0.606257 16.0868 0.968219C15.5407 2.33342 14.2399 2.72564 13.0289 2.90223C12.5435 2.97303 12.0148 3.01637 11.4927 3.05917C11.3519 3.07072 11.2116 3.08222 11.0727 3.09422C10.4031 3.15204 9.73977 3.22282 9.0975 3.36045C7.60113 3.6811 6.71391 4.29483 6.15317 4.95922C5.5821 5.63585 5.30235 6.4204 5.11679 7.16262C5.02224 7.54083 4.639 7.77077 4.26079 7.67622C3.88259 7.58167 3.65264 7.19843 3.74719 6.82022C3.95447 5.99111 4.30104 4.96488 5.07431 4.04867C5.85792 3.12021 7.03309 2.35902 8.8017 1.98003C9.53435 1.82303 10.2705 1.74649 10.9512 1.6877C11.1062 1.67431 11.2572 1.66191 11.4044 1.64982C11.919 1.60754 12.3881 1.569 12.8252 1.50526C13.9712 1.33813 14.5364 1.04288 14.776 0.443908C14.9208 0.0819463 15.3316 -0.0941102 15.6935 0.0506743Z" fill="black"/>
<path fill-rule="evenodd" clip-rule="evenodd" d="M11.3065 16.7734C11.3065 16.3835 11.6225 16.0675 12.0124 16.0675H13.7433C14.1331 16.0675 14.4492 16.3835 14.4492 16.7734C14.4492 17.1632 14.1331 17.4793 13.7433 17.4793H12.0124C11.6225 17.4793 11.3065 17.1632 11.3065 16.7734Z" fill="#29D305"/>
<path fill-rule="evenodd" clip-rule="evenodd" d="M16.0202 16.7734C16.0202 16.3835 16.3362 16.0675 16.726 16.0675H18.457C18.8468 16.0675 19.1629 16.3835 19.1629 16.7734C19.1629 17.1632 18.8468 17.4793 18.457 17.4793H16.726C16.3362 17.4793 16.0202 17.1632 16.0202 16.7734Z" fill="black"/>
<path fill-rule="evenodd" clip-rule="evenodd" d="M11.3065 19.5233C11.3065 19.1334 11.6225 18.8174 12.0124 18.8174H13.7433C14.1331 18.8174 14.4492 19.1334 14.4492 19.5233C14.4492 19.9131 14.1331 20.2291 13.7433 20.2291H12.0124C11.6225 20.2291 11.3065 19.9131 11.3065 19.5233Z" fill="black"/>
<path fill-rule="evenodd" clip-rule="evenodd" d="M16.0202 19.5233C16.0202 19.1334 16.3362 18.8174 16.726 18.8174H18.457C18.8468 18.8174 19.1629 19.1334 19.1629 19.5233C19.1629 19.9131 18.8468 20.2291 18.457 20.2291H16.726C16.3362 20.2291 16.0202 19.9131 16.0202 19.5233Z" fill="#29D305"/>
</svg>

<svg width="24" height="24" fill="none" xmlns="http://www.w3.org/2000/svg"><path fill-rule="evenodd" clip-rule="evenodd" d="M2.746 9.485a.706.706 0 01.704-.646h2.357c.362 0 .666.275.702.636L7.82 22.588h12.798v-8.91L8.942 15.054a.706.706 0 11-.165-1.402l12.464-1.47a.706.706 0 01.788.702v10.41c0 .39-.316.706-.705.706H2.272a.706.706 0 01-.704-.766l1.178-13.75zm3.656 13.103L5.168 10.251h-1.07L3.04 22.588h3.362zM15.694.05a.706.706 0 01.393.918c-.546 1.365-1.847 1.758-3.058 1.934-.486.071-1.014.114-1.536.157l-.42.035c-.67.058-1.333.129-1.976.266-1.496.321-2.383.935-2.944 1.6-.57.676-.85 1.46-1.036 2.203a.706.706 0 11-1.37-.343c.207-.829.554-1.855 1.327-2.771.784-.929 1.96-1.69 3.728-2.069.732-.157 1.469-.234 2.15-.292.154-.014.305-.026.452-.038.515-.042.984-.081 1.421-.145 1.146-.167 1.711-.462 1.951-1.061a.706.706 0 01.918-.393z" fill="#000"/><path fill-rule="evenodd" clip-rule="evenodd" d="M11.306 16.773c0-.39.317-.706.706-.706h1.731a.706.706 0 010 1.412h-1.73a.706.706 0 01-.707-.706z" fill="#29D305"/><path fill-rule="evenodd" clip-rule="evenodd" d="M16.02 16.773c0-.39.316-.706.706-.706h1.731a.706.706 0 010 1.412h-1.731a.706.706 0 01-.706-.706zM11.306 19.523c0-.39.317-.706.706-.706h1.731a.706.706 0 010 1.412h-1.73a.706.706 0 01-.707-.706z" fill="#000"/><path fill-rule="evenodd" clip-rule="evenodd" d="M16.02 19.523c0-.39.316-.706.706-.706h1.731a.706.706 0 010 1.412h-1.731a.706.706 0 01-.706-.706z" fill="#29D305"/></svg>
